X:107
T:Drunken Parson, The
S:John Moore's Book 2
Z:Transcribed by Steve Mansfield 05/2021
%%VWML: Moore2-4494-p83-0
F:http://www.vwml.org/record/Moore2/4494/p83
M:6/8
L:1/8
K:G
GBB Acc | Bdd c2A | GBB cBd | BGG G3 :| 
|: GBd g2g | ecc c2B | Ace g2g | fdd d2c | 
GBd g2g | ece d2c | BGB cAd | BGG G3 :| 

